X:4606
T:New Post Office Reel, The
O:england
M:4/4
L:1/8
S:Treoir 1-96
R:Reel
D:Denis Murphy, January 1949
K:Em
DFEF D2 dB|cAGD EFGE|DFEF D2 dB|cAGE AD D2|
DFEF D2 dB|cAGF EFGB|Bdd^c dfed|cAGE ED D2||
f2 fe fage|fdge afde|f2 fe fage|fgec Adde|
f2 fe fage|fdge afge|fage dfed|dcAG EFGE||


